public/new/vuesaxboldsetting2.svg

<svg fill="none" height="20" viewBox="0 0 20 20" width="20" xmlns="http://www.w3.org/2000/svg"><path d="m16.7501 7.68336c-1.5084 0-2.125-1.06666-1.375-2.375.4333-.75833.175-1.725-.5834-2.15833l-1.4416-.825c-.6584-.39167-1.5084-.15833-1.9.5l-.0917.15833c-.75 1.30834-1.98332 1.30834-2.74165 0l-.09167-.15833c-.375-.65833-1.225-.89167-1.88333-.5l-1.44167.825c-.75833.43333-1.01667 1.40833-.58333 2.16667.75833 1.3.14166 2.36666-1.36667 2.36666-.86667 0-1.58333.70834-1.58333 1.58334v1.4667c0 .8666.70833 1.5833 1.58333 1.5833 1.50833 0 2.125 1.0667 1.36667 2.375-.43334.7583-.175 1.725.58333 2.1583l1.44167.825c.65833.3917 1.50833.1584 1.9-.5l.09166-.1583c.75-1.3083 1.98329-1.3083 2.74169 0l.0916.1583c.3917.6584 1.2417.8917 1.9.5l1.4417-.825c.7583-.4333 1.0167-1.4083.5833-2.1583-.7583-1.3083-.1416-2.375 1.3667-2.375.8667 0 1.5833-.7083 1.5833-1.5833v-1.4667c-.0083-.86667-.7166-1.58334-1.5916-1.58334zm-6.75 5.02504c-1.49168 0-2.70835-1.2167-2.70835-2.7084 0-1.49164 1.21667-2.7083 2.70835-2.7083 1.4916 0 2.7083 1.21666 2.7083 2.7083 0 1.4917-1.2167 2.7084-2.7083 2.7084z" fill="#434665"/></svg>

<svg width="20" height="20" viewBox="0 0 20 20" fill="none" xmlns="http://www.w3.org/2000/svg">
<path d="M16.7501 7.68336C15.2417 7.68336 14.6251 6.6167 15.3751 5.30836C15.8084 4.55003 15.5501 3.58336 14.7917 3.15003L13.3501 2.32503C12.6917 1.93336 11.8417 2.1667 11.4501 2.82503L11.3584 2.98336C10.6084 4.2917 9.37508 4.2917 8.61675 2.98336L8.52508 2.82503C8.15008 2.1667 7.30008 1.93336 6.64175 2.32503L5.20008 3.15003C4.44175 3.58336 4.18341 4.55836 4.61675 5.3167C5.37508 6.6167 4.75841 7.68336 3.25008 7.68336C2.38341 7.68336 1.66675 8.3917 1.66675 9.2667V10.7334C1.66675 11.6 2.37508 12.3167 3.25008 12.3167C4.75841 12.3167 5.37508 13.3834 4.61675 14.6917C4.18341 15.45 4.44175 16.4167 5.20008 16.85L6.64175 17.675C7.30008 18.0667 8.15008 17.8334 8.54175 17.175L8.63341 17.0167C9.38341 15.7084 10.6167 15.7084 11.3751 17.0167L11.4667 17.175C11.8584 17.8334 12.7084 18.0667 13.3667 17.675L14.8084 16.85C15.5667 16.4167 15.8251 15.4417 15.3917 14.6917C14.6334 13.3834 15.2501 12.3167 16.7584 12.3167C17.6251 12.3167 18.3417 11.6084 18.3417 10.7334V9.2667C18.3334 8.40003 17.6251 7.68336 16.7501 7.68336ZM10.0001 12.7084C8.50842 12.7084 7.29175 11.4917 7.29175 10C7.29175 8.50836 8.50842 7.2917 10.0001 7.2917C11.4917 7.2917 12.7084 8.50836 12.7084 10C12.7084 11.4917 11.4917 12.7084 10.0001 12.7084Z" fill="#434665"/>
</svg>
